packages/core/src/svgs/uos.svg

<svg width="24" height="24" viewBox="0 0 24 24" fill="none" xmlns="http://www.w3.org/2000/svg">
<g clip-path="url(#clip0_31_20229)">
<path d="M0 0H24V24H0V0Z" fill="#7A51D1"/>
<path d="M10.7144 12.4716V6.42871H13.2858V12.4716C13.2858 12.9516 12.8444 13.7144 12.0386 13.7144C11.87 13.7201 11.7019 13.6925 11.5439 13.6331C11.386 13.5736 11.2413 13.4836 11.1183 13.3681C10.9953 13.2526 10.8962 13.114 10.8269 12.9601C10.7576 12.8063 10.7193 12.6402 10.7144 12.4716Z" fill="white"/>
<path d="M5.14282 13.0159V6.42871H7.71425V12.883C7.71425 14.413 8.79425 16.7144 12 16.7144C14.8971 16.7144 16.2857 14.8416 16.2857 12.883V6.42871H18.8571V12.6773C18.8571 13.993 18.4114 19.243 12 19.2859C6.44997 19.3244 5.14282 15.103 5.14282 13.0159Z" fill="white"/>
</g>
<defs>
<clipPath id="clip0_31_20229">
<rect width="24" height="24" fill="white"/>
</clipPath>
</defs>
</svg>

<svg xmlns="http://www.w3.org/2000/svg" width="24" height="24" fill="none" viewBox="0 0 24 24"><g clip-path="url(#a)"><path fill="#7A51D1" d="M0 0h24v24H0z"/><path fill="#fff" d="M10.714 12.472V6.429h2.572v6.043c0 .48-.442 1.242-1.247 1.242a1.283 1.283 0 0 1-1.325-1.242"/><path fill="#fff" d="M5.143 13.016V6.429h2.571v6.454c0 1.53 1.08 3.831 4.286 3.831 2.897 0 4.286-1.872 4.286-3.831V6.429h2.571v6.248c0 1.316-.446 6.566-6.857 6.609-5.55.038-6.857-4.183-6.857-6.27"/></g><defs><clipPath id="a"><path fill="#fff" d="M0 0h24v24H0z"/></clipPath></defs></svg>
